X:6037
T:Gan Ainm 
R:Hornpipe
S:
H:
N:
D:Irish Dancing Tape (P. Acc)
Z:Adrian Scahill
M:4/4
L:1/8
K:G
G,B,DB, A,CEC|B,DGF GD (3B,CD|CE (3ABc BA (3GAB|(3AaA (3GFE (3DdD (3CB,A,|\
G,B,DB, A,CEC|B,DGF GD (3B,CD|CE (3ABc BA (3GAB|1 Ad (3FGA (3GED (3CBA,:|2 Ad (3FGA G2gf||\
gdBd ed (3Bcd|gdBd ed (3Bcd|caec BA (3GAB|(3AaA (3GFE D2 gf|\
gdBd ed (3Bcd|gdBd ed (3Bcd|caec BA (3GAB|Ad (3FGA G4:||
